X: 090936
T: If There Weren't Any Women (in the World)
S: Reavy Collection: "Music of Corktown"
M: 4/4
L: 1/8
R: hornpipe
Z: B.Black
K: G 
Bc|dedB GABG|E2 ^D2 =D3 D|G2 FG edBG|A2 A2 A2 Bc|
dedB GABG|E2 ^D2 =D2 GA|B2 dB AGAB|1 G4 G2 :|2 G4-G2 ||
cd|e2 e2 g3f|e2 d2 d2 GA|B2 AB edBG|A4-A2 Bc|
dedB GABG|E2 ^D2 =D2 GA|B2 dB AGAB|G4 G2 :|
